X:1
T:Gelobt Sei Gott, 888 with alleluias
T:Gelobt Sei Gott, 888 with alleluias
T:Melchior Vulpius (circa 1560-1615)
T:Public Domain Courtesy of the Cyber Hymnal™
C:Melchior Vulpius (circa 1560-1615)
Z:Public Domain
Z:Courtesy of the Cyber Hymnal™
%%score ( 1 2 ) ( 3 4 )
L:1/8
M:3/4
K:C
V:1 treble 
V:2 treble 
V:3 bass 
V:4 bass 
V:1
 c2 B2 [FA]2 | [DG]4 G2 | A4 B2 | [Gc]6 | [Ac]2 [Ac]2 [Ad]2 | G4 [Ac]2 | B2 z2 x6 | [DG]6 | %8
 G2 E2 A2 | G4 z x2 | E2 z2 x6 | C6 x4 | [Gc]2 [Gc]2 [GB]2 | (c3 B [FA]2) x | [DG]2 [DG]2 [D^F]2 | %15
 G3 (z F [CE]2) | [A,D]2 [G,C]2 [G,B,]2 | [G,C]6 |] %18
V:2
 G4 x2 | x4 G2 | F6 | x6 | x6 | (D2 C2) x2 | G4 A4 ^F2 | x6 | C6 | (B,2 C2) (c2 B,) | C4 (D4 B,2) | %11
 C6 x4 | x6 | E4 x3 | x6 | D2 B,2 x3 | x6 | x6 |] %18
V:3
 [C,E]2 [E,E]2 [F,C]2 | B,4 [E,C]2 | C4 [D,D]2 | E6 | E2 z [F,D]2 x | ([F,B,]2 [E,C]2) [A,,E]2 | %6
 [B,,D]2 ([C,E]2 [E,D]2) x4 | B,6 | [E,C]2 [E,,G,]2 [F,,F,]2 | ([F,,D,]2 [E,,E,]2) [D,,F,]2 x | %10
 [E,,G,]2 ([F,,A,]2 [G,,G,]2) x4 | z2 x8 | [CE]2 [CE]2 [G,D]2 | C4 (G, F,2) | %14
 [G,B,]2 [G,B,]2 [D,A,]2 | G,4 [A,,C,]2 x | [F,,F,]2 [G,,E,]2 [G,,D,]2 | [C,E,]6 |] %18
V:4
 x6 | (G,2 F,2) x2 | (F,2 E,2) x2 | (A,,2 C2 B,2) | A,3 (E2 G,) | x6 | x10 | (G,,2 G,2 F,2) | x6 | %9
 x7 | x10 | [C,E,]6 E,2 G,2 | x6 | A,3 x4 | x6 | B,,2 G,,2 x3 | x6 | x6 |] %18

